src/icons/structure.svg

<?xml version="1.0" encoding="UTF-8"?>
<svg xmlns="http://www.w3.org/2000/svg" xmlns:xlink="http://www.w3.org/1999/xlink" width="32" height="32" viewBox="0 0 32 32" version="1.1">
<g id="surface1">
<path style=" stroke:none;fill-rule:nonzero;fill:rgb(0%,0%,0%);fill-opacity:1;" d="M 22.398438 3.839844 C 21.347656 3.839844 20.480469 4.707031 20.480469 5.761719 L 20.480469 8 L 11.519531 14.71875 L 11.519531 13.441406 C 11.519531 12.386719 10.652344 11.519531 9.601562 11.519531 L 1.921875 11.519531 C 0.867188 11.519531 0 12.386719 0 13.441406 L 0 18.558594 C 0 19.613281 0.867188 20.480469 1.921875 20.480469 L 9.601562 20.480469 C 10.652344 20.480469 11.519531 19.613281 11.519531 18.558594 L 11.519531 17.28125 L 20.480469 24 L 20.480469 26.238281 C 20.480469 27.292969 21.347656 28.160156 22.398438 28.160156 L 30.078125 28.160156 C 31.132812 28.160156 32 27.292969 32 26.238281 L 32 21.121094 C 32 20.066406 31.132812 19.199219 30.078125 19.199219 L 22.398438 19.199219 C 21.347656 19.199219 20.480469 20.066406 20.480469 21.121094 L 20.480469 22.398438 L 11.960938 16 L 20.480469 9.601562 L 20.480469 10.878906 C 20.480469 11.933594 21.347656 12.800781 22.398438 12.800781 L 30.078125 12.800781 C 31.132812 12.800781 32 11.933594 32 10.878906 L 32 5.761719 C 32 4.707031 31.132812 3.839844 30.078125 3.839844 Z M 22.398438 5.121094 L 30.078125 5.121094 C 30.433594 5.121094 30.71875 5.40625 30.71875 5.761719 L 30.71875 10.878906 C 30.71875 11.234375 30.433594 11.519531 30.078125 11.519531 L 22.398438 11.519531 C 22.046875 11.519531 21.761719 11.234375 21.761719 10.878906 L 21.761719 5.761719 C 21.761719 5.40625 22.046875 5.121094 22.398438 5.121094 Z M 1.921875 12.800781 L 9.601562 12.800781 C 9.953125 12.800781 10.238281 13.085938 10.238281 13.441406 L 10.238281 18.558594 C 10.238281 18.914062 9.953125 19.199219 9.601562 19.199219 L 1.921875 19.199219 C 1.566406 19.199219 1.28125 18.914062 1.28125 18.558594 L 1.28125 13.441406 C 1.28125 13.085938 1.566406 12.800781 1.921875 12.800781 Z M 22.398438 20.480469 L 30.078125 20.480469 C 30.433594 20.480469 30.71875 20.765625 30.71875 21.121094 L 30.71875 26.238281 C 30.71875 26.59375 30.433594 26.878906 30.078125 26.878906 L 22.398438 26.878906 C 22.046875 26.878906 21.761719 26.59375 21.761719 26.238281 L 21.761719 21.121094 C 21.761719 20.765625 22.046875 20.480469 22.398438 20.480469 Z M 22.398438 20.480469 "/>
</g>
</svg>

<svg role="img" viewBox="0 0 32 32" xmlns="http://www.w3.org/2000/svg"><path d="M22.398 3.84a1.93 1.93 0 0 0-1.918 1.922V8l-8.96 6.719V13.44a1.93 1.93 0 0 0-1.918-1.921h-7.68A1.93 1.93 0 0 0 0 13.44v5.118a1.93 1.93 0 0 0 1.922 1.921h7.68a1.93 1.93 0 0 0 1.918-1.921V17.28L20.48 24v2.238a1.93 1.93 0 0 0 1.918 1.922h7.68A1.93 1.93 0 0 0 32 26.238v-5.117a1.93 1.93 0 0 0-1.922-1.922h-7.68a1.93 1.93 0 0 0-1.918 1.922v1.277L11.96 16l8.52-6.398v1.277a1.93 1.93 0 0 0 1.918 1.922h7.68A1.93 1.93 0 0 0 32 10.879V5.762a1.93 1.93 0 0 0-1.922-1.922Zm0 1.281h7.68c.356 0 .64.285.64.64v5.118c0 .355-.284.64-.64.64h-7.68a.638.638 0 0 1-.636-.64V5.762c0-.356.285-.64.636-.64m-20.476 7.68h7.68c.351 0 .636.285.636.64v5.118c0 .355-.285.64-.636.64h-7.68a.639.639 0 0 1-.64-.64v-5.12c0-.355.284-.64.64-.64m20.476 7.68h7.68c.356 0 .64.285.64.64v5.117c0 .356-.284.64-.64.64h-7.68a.638.638 0 0 1-.636-.64V21.12c0-.355.285-.64.636-.64m0 0" style="stroke:none;fill-rule:nonzero;fill:rgb(0%,0%,0%);fill-opacity:1"/></svg>
